icons/coffeescript.svg

<?xml version="1.0" encoding="UTF-8" standalone="no" ?>
<svg width="256px" height="206px" viewBox="0 0 256 206" version="1.1" xmlns="http://www.w3.org/2000/svg" xmlns:xlink="http://www.w3.org/1999/xlink" preserveAspectRatio="xMidYMid">
    <g>
        <path d="M101.614018,9.07118344 C101.846878,10.4683416 101.148299,11.6326402 98.8197015,12.7969387 C95.7925254,11.1669208 89.2724538,10.2354819 83.9166806,10.7012013 C78.0951881,11.1669208 73.2051344,13.0297984 73.9037135,16.9884133 C74.8351523,20.9470282 80.4237851,23.2756252 90.4367523,22.3441864 C114.887021,20.2484491 114.654161,3.7154103 150.514555,0.455374484 C178.457719,-2.10608223 194.059319,6.50972672 196.155057,16.9884133 C197.785075,25.1385028 191.032143,33.0557327 170.773349,34.6857506 C152.843152,36.3157685 142.364466,31.4257148 141.433027,26.535661 C140.967307,23.9742043 142.364466,20.2484491 150.980275,19.3170103 C151.911713,23.2756252 156.801767,27.4670999 168.444752,26.3028013 C176.827702,25.6042222 183.813493,22.5770461 182.882054,17.9198521 C181.950615,13.0297984 173.101946,10.2354819 159.130364,11.3997805 C130.721481,13.9612372 123.73569,29.5628372 99.5182806,31.6585745 C82.2866627,33.2885924 68.3150806,27.0013805 66.452203,17.6869924 C65.7536239,14.1940969 65.7536239,6.04400732 83.9166806,4.41398941 C93.2310687,3.7154103 100.682579,5.34542821 101.614018,9.07118344 L101.614018,9.07118344 Z M10.7987344,106.406539 C2.88150451,116.419506 -0.611391007,128.062491 0.087188097,139.472616 C0.785767201,150.882742 6.37440004,160.19713 15.2230687,167.41578 C24.5374568,174.634431 34.5504239,176.730168 45.9605493,174.634431 C50.3848836,173.935852 55.2749373,171.607255 59.6992717,170.210097 C50.3848836,170.210097 42.4676538,167.182921 34.5504239,160.895709 C25.934615,154.608497 20.1131224,145.759828 18.7159642,135.048282 C16.6202269,125.035315 18.7159642,115.720927 24.304597,107.570837 C30.591809,99.6536073 38.7418985,95.229273 49.4534448,93.8321148 C60.1649911,93.1335357 69.4793791,95.9278521 78.7937672,102.447924 C76.6980299,99.4207476 73.6708538,97.3250103 70.8765373,94.5306939 C61.5621493,88.2434819 51.5491821,85.2163058 39.2076179,88.2434819 C28.0303523,90.5720789 18.7159642,96.3935715 10.7987344,106.406539 L10.7987344,106.406539 Z M135.611534,52.6159476 C105.572633,52.6159476 78.7937672,49.5887715 59.466412,45.3972969 C38.7418985,40.2743834 27.7974926,34.6857506 27.7974926,27.4670999 C27.7974926,24.4399237 29.1946508,21.878467 33.3861254,18.8512909 C20.3459821,23.9742043 13.3601911,28.165679 13.3601911,34.6857506 C14.0587702,41.9044013 25.7017553,49.1230521 49.4534448,54.7116849 C71.8079761,60.3003178 100.449719,63.3274939 134.912955,63.3274939 C170.07477,63.3274939 198.017934,60.3003178 220.372466,54.7116849 C244.124155,49.1230521 255.534281,41.6715416 255.534281,34.6857506 C255.534281,29.5628372 250.411367,24.6727834 241.096979,20.9470282 C243.192716,22.3441864 244.822734,24.6727834 244.822734,27.2342402 C244.822734,34.4528909 234.111188,40.2743834 212.455236,45.1644372 C192.429302,49.5887715 166.814734,52.6159476 135.611534,52.6159476 L135.611534,52.6159476 Z M221.303904,72.6418819 C198.949373,77.7647954 170.30763,81.2576909 135.844394,81.2576909 C100.682579,81.2576909 72.0408358,77.5319357 49.6863045,72.6418819 C29.6603702,67.5189685 18.9488239,61.9303357 15.2230687,56.1088431 C18.9488239,81.2576909 27.5646329,105.00938 38.9747582,125.966754 C47.5905672,139.006897 56.2063761,150.417022 64.8221851,162.758586 C68.5479403,169.977237 71.109397,177.195888 72.739415,184.414539 C78.3280478,192.331768 86.4781373,197.454682 96.4911045,200.248998 C108.832669,204.673333 121.639952,206.53621 134.680096,205.837631 L136.077254,205.837631 C149.117397,206.53621 162.856119,204.440473 175.430543,200.248998 C184.744931,197.221822 192.662161,192.331768 198.483654,184.414539 L199.182233,184.414539 C200.579391,177.195888 202.907988,169.977237 206.400884,162.758586 C215.016693,150.417022 223.632501,139.006897 232.24831,125.966754 C243.658436,105.24224 251.575666,81.4905506 256,56.1088431 C251.342806,62.6289148 240.63126,68.2175476 221.303904,72.6418819 L221.303904,72.6418819 Z" fill="#28334C"></path>
    </g>
</svg>

<svg xmlns="http://www.w3.org/2000/svg" viewBox="0 0 256 205.981">
  <path fill="#28334c" d="M101.614 9.071c.233 1.397-.466 2.562-2.794 3.726-3.027-1.63-9.548-2.562-14.903-2.096-5.822.466-10.712 2.329-10.013 6.287.931 3.959 6.52 6.288 16.533 5.356 24.45-2.096 24.217-18.629 60.078-21.889 27.943-2.561 43.544 6.055 45.64 16.533 1.63 8.15-5.123 16.068-25.382 17.698-17.93 1.63-28.409-3.26-29.34-8.15-.466-2.562.931-6.288 9.547-7.219.932 3.959 5.822 8.15 17.465 6.986 8.383-.699 15.368-3.726 14.437-8.383-.931-4.89-9.78-7.685-23.752-6.52-28.409 2.561-35.394 18.163-59.612 20.259C82.287 33.289 68.315 27 66.452 17.687c-.698-3.493-.698-11.643 17.465-13.273 9.314-.699 16.766.931 17.697 4.657zm-90.815 97.336C2.882 116.42-.611 128.062.087 139.473c.699 11.41 6.287 20.724 15.136 27.943 9.314 7.218 19.327 9.314 30.738 7.218 4.424-.698 9.314-3.027 13.738-4.424-9.314 0-17.231-3.027-25.149-9.314-8.615-6.287-14.437-15.136-15.834-25.848-2.096-10.013 0-19.327 5.589-27.477 6.287-7.917 14.437-12.342 25.148-13.739 10.712-.698 20.026 2.096 29.34 8.616-2.095-3.027-5.122-5.123-7.916-7.917-9.315-6.288-19.328-9.315-31.67-6.288-11.177 2.33-20.491 8.15-28.408 18.164zm124.813-53.791c-30.04 0-56.818-3.027-76.146-7.219-20.724-5.123-31.669-10.711-31.669-17.93 0-3.027 1.398-5.589 5.59-8.616-13.041 5.123-20.027 9.315-20.027 15.835.699 7.218 12.342 14.437 36.093 20.026 22.355 5.588 50.997 8.615 85.46 8.615 35.162 0 63.105-3.027 85.46-8.615 23.751-5.589 35.161-13.04 35.161-20.026 0-5.123-5.123-10.013-14.437-13.739 2.096 1.397 3.726 3.726 3.726 6.287 0 7.219-10.712 13.04-32.368 17.93-20.026 4.425-45.64 7.452-76.843 7.452zm85.692 20.026c-22.355 5.123-50.996 8.616-85.46 8.616-35.161 0-63.803-3.726-86.158-8.616C29.66 67.519 18.95 61.93 15.223 56.109c3.726 25.149 12.342 48.9 23.752 69.858 8.616 13.04 17.231 24.45 25.847 36.792 3.726 7.218 6.287 14.437 7.917 21.656 5.589 7.917 13.74 13.04 23.752 15.834 12.342 4.424 25.149 6.287 38.19 5.589h1.396c13.04.698 26.78-1.398 39.354-5.589 9.314-3.027 17.231-7.917 23.053-15.834h.698c1.397-7.22 3.726-14.438 7.219-21.656 8.616-12.342 17.231-23.752 25.847-36.792 11.41-20.725 19.328-44.476 23.752-69.858-4.657 6.52-15.369 12.109-34.696 16.533z"/>
</svg>
